layouts/icon-pack/spell_wave.svg

<?xml version="1.0" encoding="UTF-8"?>
<svg width="1200pt" height="1200pt" version="1.1" viewBox="0 0 1200 1200" xmlns="http://www.w3.org/2000/svg">
 <g fill="#fff">
  <path d="m1142.8 1072.2c-48.305-45.328-104.34-123-135.84-251.91-1.0312-3.9375-3.6289-7.2773-7.1953-9.2422-3.5625-1.9609-7.7773-2.375-11.652-1.1445-3.8789 1.2344-7.082 4.0078-8.8555 7.668l-17.484 37.5c-3.75 7.668-10.395 13.531-18.473 16.297-8.0742 2.7656-16.918 2.207-24.582-1.5547-6.0273-2.8711-10.961-7.625-14.051-13.543-3.0898-5.918-4.1719-12.684-3.082-19.27 8.9531-52.289 42.398-187.27 161.48-335.62 18.938-23.578-7.5-56.25-35.484-43.828-94.289 41.742-232.78 144.47-311.86 396.09-8.2031 26.086-46.008 26.484-54.727 0.58594-7.0078-20.633-12.57-41.73-16.641-63.141-3.8203-20.648-32.812-24.117-41.648-5.0391-5.9531 12.68-12.07 26.859-17.953 42.188-12.516 32.812-60.938 30.281-70.102-3.4688-5.7422-21.094-8.2266-49.219-4.0547-85.875 0 0 11.086-132 39.422-249.3 5.0859-21.094-24.117-32.812-35.859-14.367-11.742 18.445-24.117 39.492-35.672 62.133-20.367 39.844-81.305 32.648-91.148-10.898-6.1367-26.352-6.0078-53.77 0.375-80.062 21.094-86.227 41.812-179.39 155.13-336.54 16.406-22.758-10.781-51.094-35.156-36.68-203.04 119.77-610.36 446.27-404.95 1057.5h1015.7c31.406 0 46.922-37.195 24.328-58.43z"/>
  <path d="m580.69 397.24c8.2773-0.22266 16.133-3.707 21.855-9.6914 5.7227-5.9844 8.8516-13.988 8.7031-22.27-0.15234-8.2812-3.5625-16.168-9.5-21.941-5.9336-5.7773-13.91-8.9727-22.191-8.8984-8.2812 0.078125-16.195 3.4219-22.023 9.3047-5.8281 5.8828-9.0977 13.832-9.0938 22.113 0.11719 8.4375 3.582 16.484 9.6289 22.367 6.0469 5.8867 14.184 9.1289 22.621 9.0156z"/>
 </g>
</svg>

<?xml version="1.0" encoding="UTF-8" standalone="no"?>
<!DOCTYPE svg PUBLIC "-//W3C//DTD SVG 1.1//EN" "http://www.w3.org/Graphics/SVG/1.1/DTD/svg11.dtd">
<svg width="100%" height="100%" viewBox="0 0 512 491" version="1.1" xmlns="http://www.w3.org/2000/svg" xmlns:xlink="http://www.w3.org/1999/xlink" xml:space="preserve" xmlns:serif="http://www.serif.com/" style="fill-rule:evenodd;clip-rule:evenodd;stroke-linejoin:round;stroke-miterlimit:2;">
    <g transform="matrix(1,0,0,1,-46.4016,-69.2608)">
        <g transform="matrix(0.462478,0,0,0.462478,24.9419,37.2292)">
            <path d="M1142.8,1072.2C1094.5,1026.87 1038.46,949.2 1006.96,820.29C1005.93,816.353 1003.33,813.013 999.765,811.048C996.202,809.087 991.987,808.673 988.113,809.903C984.234,811.138 981.031,813.911 979.257,817.571L961.773,855.071C958.023,862.739 951.378,868.602 943.3,871.368C935.226,874.134 926.382,873.575 918.718,869.814C912.691,866.943 907.757,862.189 904.667,856.271C901.577,850.353 900.495,843.587 901.585,837.001C910.538,784.712 943.983,649.731 1063.07,501.381C1082,477.803 1055.57,445.131 1027.58,457.553C933.292,499.295 794.801,602.023 715.721,853.643C707.518,879.729 669.713,880.127 660.994,854.229C653.986,833.596 648.424,812.499 644.353,791.088C640.533,770.44 611.541,766.971 602.705,786.048C596.752,798.728 590.635,812.907 584.752,828.236C572.236,861.048 523.814,858.517 514.65,824.768C508.908,803.674 506.424,775.549 510.595,738.893C510.595,738.893 521.681,606.893 550.017,489.593C555.103,468.499 525.901,456.781 514.158,475.226C502.416,493.671 490.041,514.718 478.486,537.359C458.119,577.203 397.181,570.007 387.338,526.461C381.202,500.109 381.331,472.691 387.713,446.399C408.807,360.172 429.525,267.009 542.843,109.859C559.249,87.101 532.062,58.765 507.687,73.179C304.647,192.949 -102.673,519.449 102.737,1130.68L1118.44,1130.68C1149.84,1130.68 1165.36,1093.48 1142.77,1072.25L1142.8,1072.2Z" style="fill:white;fill-rule:nonzero;"/>
            <path d="M580.69,397.24C588.967,397.017 596.823,393.533 602.545,387.549C608.268,381.564 611.397,373.561 611.248,365.279C611.096,356.997 607.686,349.111 601.748,343.338C595.815,337.56 587.838,334.365 579.557,334.439C571.276,334.517 563.362,337.861 557.534,343.744C551.706,349.627 548.436,357.576 548.44,365.857C548.557,374.294 552.022,382.341 558.069,388.224C564.116,394.111 572.253,397.353 580.69,397.24L580.69,397.24Z" style="fill:white;fill-rule:nonzero;"/>
        </g>
    </g>
</svg>
